X:1
T:Title
%%score { ( 1 3 4 ) | ( 2 5 6 ) }
L:1/8
M:4/4
K:Ab
V:1 treble nm="Grand Piano"
V:3 treble 
V:4 treble 
V:2 bass 
V:5 bass 
V:6 bass 
V:1
 z4 z2[Q:1/4=84] [Ec][=D_c] | [Ec][CE][_C=D][=CE] [Ec]2 _c=c | [Fd]F=EF [FB]2 [FA][FA] | %3
 G_G=GA BGFE | e6[K:bass][K:treble] z2 | [Ec][CE][_C=D][=CE] [Ec]2 _c=c | [Fd]F=EF [FB]2 [FA][FA] | %7
 z4 [A=d]2[K:bass][K:treble] z2 |[M:3/4] [Ge]6[K:bass] |[M:1/4][K:treble] d2 |[M:4/4] z4 c2 z2 | %11
 c6 z2 | e6 .[Ac]2 | e6 z2 | d2 d2 z4 | c2 c2 z4 | (3[Ee][Fe][Ge] [Fe][Fd] [Ec]2 [DEB]>[DEB] | %17
[M:3/4] [CEA]6 |] %18
V:2
 z4 z2 [A,,A,][A,,A,] | [A,,A,][A,,A,][A,,A,][A,,A,] [A,,A,]2 [A,=D][A,E] | %2
 [D,A,][D,A,D][D,G,D][D,A,D] [D,D]2 [=D,B,][D,B,] | %3
 [E,B,E][E,=A,E][E,B,E][E,CE] [E,DE][E,B,E][F,_A,D]G, | [A,CE]6 [A,,A,][A,,A,] | %5
 [A,,A,][A,,A,][A,,A,][A,,A,] [A,,A,]2 [A,=D][A,E] | %6
 [D,A,][D,A,D][D,G,D][D,A,D] [D,D]2 [=D,B,][D,B,] | %7
 (3[E,B,E][E,B,E][E,B,E] [E,E][E,B,] .[F,B,]2 [C,B,][=D,B,] |[M:3/4] B,6 |[M:1/4] [E,B,E]2 | %10
[M:4/4] (3[A,,A,][A,,A,][A,,A,] [A,,A,][A,,A,] [A,,A,]2 [A,,E,][A,,E,] | %11
 [A,,A,]4- [A,,A,][K:treble][A,C][A,CE][A,EA] | z4 E2[K:bass] z2 | z4 E4- | E6[K:bass] z2 | %15
 [A,,A,]2 [A,,A,]2 [A,,A,]2 [A,,A,][B,,G,] | (3[C,A,][C,A,][C,A,] [D,A,][D,A,] [E,A,]2 E,>D, | %17
[M:3/4] A,,6 |] %18
V:3
 x8 | x8 | x8 | x8 | z z/[K:bass] F,/ E,C, A,,2[K:treble] [Ec][=D_c] | x8 | x8 | %7
 (3GGG [GB][Ge] z[K:bass] B,,[K:treble][Ac][AB] |[M:3/4] z z/[K:bass] F,/ G,F, z D, | %9
[M:1/4][K:treble] x2 |[M:4/4] (3[Ec][Fc][Gc] [Ac][Gc] FE[CA][DB] | EAGF EEAc | z Bcd c[Bd]E-[EBd] | %13
 z Bcd c2 cc | z cBA [Gd][GB][A,EA][EB] | EAGF [Ec]2 [Ec][Ed] | x8 |[M:3/4] x6 |] %18
V:4
 x8 | x8 | x8 | x8 | x3/2[K:bass] x9/2[K:treble] x2 | x8 | x8 | x5[K:bass] x[K:treble] x2 | %8
[M:3/4] z2[K:bass] z2 E,2 |[M:1/4][K:treble] x2 |[M:4/4] x8 | x8 | x8 | x8 | x8 | x8 | x8 | %17
[M:3/4] x6 |] %18
V:5
 x8 | x8 | x8 | x8 | x8 | x8 | x8 | x8 |[M:3/4] E,4 z2 |[M:1/4] x2 |[M:4/4] x8 | x5[K:treble] x3 | %12
 [CA]DEF z[K:bass] E,E,E, | [CA]DEF z2 [A,A][=A,_G] | [B,G][K:bass]A,G,F, E,D,C,[B,,G,] | x8 | x8 | %17
[M:3/4] x6 |] %18
V:6
 x8 | x8 | x8 | x8 | x8 | x8 | x8 | x8 |[M:3/4] x6 |[M:1/4] x2 |[M:4/4] x8 | x5[K:treble] x3 | %12
 A,6[K:bass] z2 | A,6 z2 | x[K:bass] x7 | x8 | x8 |[M:3/4] x6 |] %18

